!!!!SEGMENT: Ric1003b-Missa_Veni_sponsa_Christi-Gloria
!!!id: Ric1003b
!!!AGN: Mass; Gloria
!!!voices: 3-4
!!!OPR: Missa Veni sponsa Christi
!!!COM: Jean Richafort
!!!OTL: Gloria
**kern	**kern	**kern	**kern
*part4	*part3	*part2	*part1
*staff4	*staff3	*staff2	*staff1
*I"Bassus	*I"Tenor	*I"Altus	*I"Superius
*I'B	*I'T	*I'A	*I'S
*clefF4	*clefGv2	*clefGv2	*clefG2
*k[b-]	*k[b-]	*k[b-]	*k[b-]
*F:	*F:	*F:	*F:
*M2/1	*M2/1	*M2/1	*M2/1
*met(C|)	*met(C|)	*met(C|)	*met(C|)
=1	=1	=1	=1
!!section: Et in terra pax
!!!OMD: Et in terra pax
0r	0r	0r	1.cc
.	.	.	2cc
=2	=2	=2	=2
0r	0r	0r	1cc
.	.	.	1cc
=3	=3	=3	=3
0r	0r	1r	1a
.	.	[1f	1cc
=4	=4	=4	=4
0r	0r	2f]	1.dd
.	.	2f	.
.	.	1f	.
.	.	.	2cc
=5	=5	=5	=5
0r	0r	1f	2cc
.	.	.	4dd
.	.	.	4cc
.	.	1d	4dd
.	.	.	4ee
.	.	.	[2ff
=6	=6	=6	=6
0r	0r	1f	4ff]
.	.	.	4ee
.	.	.	2.dd
.	.	[1g	.
.	.	.	4cc
.	.	.	4b-y
.	.	.	4a
=7	=7	=7	=7
0r	0r	2g]	2b-y
.	.	2f	2cc
.	.	[1f	1a
=8	=8	=8	=8
0r	0r	0f]	2r
.	.	.	1cc
.	.	.	2a
=9	=9	=9	=9
1r	0r	2r	2cc
.	.	1f	2dd
2r	.	.	1cc
[2c	.	2e	.
=10	=10	=10	=10
2c]	0r	2g	1cc
2A	.	2a	.
2c	.	2g	1r
2d	.	[2f	.
=11	=11	=11	=11
1c	2r	2f]	1g
.	1c	2e	.
[1F	.	1f	2a
.	2A	.	[2cc
=12	=12	=12	=12
0F]	2c	2r	4cc]
.	.	.	4b-y
.	2d	2f	4a
.	.	.	4g
.	1c	1a	2f
.	.	.	[2ff
=13	=13	=13	=13
0r	2c	1g	2ff]
.	2c	.	2ee
.	2d	2f	2dd
.	[2f	[2a	4cc
.	.	.	4b-y
=14	=14	=14	=14
1F	4f]	4a]	1a
.	4e	4g	.
.	2.d	1f	.
[1G	.	.	1r
.	4c	.	.
.	4B-y	4e	.
.	4A	4d	.
=15	=15	=15	=15
2G]	2B-y	2e	1r
2F	2c	2f	.
1F	1A	[1f	2r
.	.	.	2cc
=16	=16	=16	=16
2r	2r	1f]	2cc
2F	2d	.	2a
2G	2d	1r	2.b-y
[2B-y	[2d	.	.
.	.	.	4a
=17	=17	=17	=17
4B-]	4d]	0r	2f
4A	4c	.	.
2.G	2.e	.	2g
.	.	.	2a
4F	4d	.	.
4E	[2d	.	2b-y
4D	.	.	.
=18	=18	=18	=18
2E	4d]	2r	1cc
.	4c	.	.
2F	1c	1f	.
1D	.	.	1r
.	2BnXi	2d	.
=19	=19	=19	=19
1C	0c	2.e	0r
.	.	4d	.
2r	.	4e	.
.	.	4f	.
[2c	.	[2g	.
=20	=20	=20	=20
2c]	1r	2g]	0r
2A	.	2c	.
2B-y	2r	2d	.
2A	[2c	2e	.
=21	=21	=21	=21
1F	2c]	1.f	2r
.	2A	.	2cc
1r	2B-y	.	2dd
.	2A	2f	[2cc
=22	=22	=22	=22
2r	1F	2f	2cc]
2c	.	2f	2.a
2c	1r	2e	.
.	.	.	4b-y
2A	.	2c	2cc
=23	=23	=23	=23
2.B-y	2r	1d	2.f
.	2f	.	.
4A	.	.	4g
2F	2f	1r	2a
2G	2d	.	2b-y
=24	=24	=24	=24
2A	2.f	0r	2cc
2B-y	.	.	1dd
.	4e	.	.
1c	2c	.	.
.	2e	.	[2cc
=25	=25	=25	=25
1G	1d	2r	2cc]
.	.	2g	2bnXi
2E	1c	2g	[1cc
2C	.	2e	.
=26	=26	=26	=26
2.F	2r	2.f	1cc]
.	2c	.	.
4G	.	4e	.
1A	2c	4c	1r
.	.	4d	.
.	2A	4e	.
.	.	4f	.
=27	=27	=27	=27
0r	2.B-y	4d	2r
.	.	4c	.
.	.	2f	1b-y
.	4A	.	.
.	2F	2r	.
.	2A	[2f	2a
=28	=28	=28	=28
2r	1G	2f]	2b-y
1B-y	.	2e	2g
.	1F	[1f	1cc
2A	.	.	.
=29	=29	=29	=29
1B-y	0r	2f]	2f
.	.	2d	1b-y
2G	.	1g	.
[2c	.	.	[2g
=30	=30	=30	=30
2c]	0r	1c	2g]
1F	.	.	1cc
.	.	1f	.
[2B-y	.	.	[2f
=31	=31	=31	=31
4B-]	1r	1d	2f]
4A	.	.	.
2.G	.	.	1b-y
.	2r	1g	.
4F	.	.	.
4E	[2c	.	2g
4D	.	.	.
=32	=32	=32	=32
2C	2c]	1e	2.cc
1c	2c	.	.
.	.	.	4dd
.	2A	1a	2ee
2A	2c	.	2ff
=33	=33	=33	=33
2B-y	2d	2f	2dd
2A	2e	1a	1cc
2F	2f	.	.
2F	2d	4g	4b-y
.	.	4f	4a
=34	=34	=34	=34
1A	1c	2e	1cc
.	.	2.f	.
1G	1r	.	2b-y
.	.	4e	.
.	.	4d	2g
.	.	8cL	.
.	.	8B-yJ	.
=35	=35	=35	=35
[0F	1r	2c	2.a
.	.	2d	.
.	.	.	4b-y
.	2r	1A	1cc
.	[2c	.	.
=36	=36	=36	=36
0F]	2c]	2r	2r
.	2c	1f	1cc
.	2A	.	.
.	2c	2f	2a
=37	=37	=37	=37
0r	2d	2B-y	2b-y
.	2e	2c	2a
.	2f	2d	2f
.	2d	2B-y	2f
=38	=38	=38	=38
2r	1c	2.A	1a
1F	.	.	.
.	.	4B-y	.
.	1r	2c	1g
2E	.	2c	.
=39	=39	=39	=39
1F	2r	1c	0f
.	1c	.	.
1D	.	2r	.
.	2BnXi	2d	.
=40	=40	=40	=40
2.C	1c	2e	0r
.	.	1g	.
4D	.	.	.
2E	1c	.	.
2F	.	2f	.
=41	=41	=41	=41
2C	1c	2g	0r
1c	.	2e	.
.	2d	2f	.
2B-y	[2f	2d	.
=42	=42	=42	=42
2.A	2f]	1c	0r
.	2e	.	.
4c	.	.	.
2B-y	2d	1f	.
2A	2c	.	.
=43	=43	=43	=43
2B-y	2d	1r	1ff
4A	4c	.	.
4G	4B-y	.	.
1F	1c	2r	2ff
.	.	2f	2ff
=44	=44	=44	=44
0BB-y	2r	2f	2dd
.	2B-y	2f	2.ff
.	2B-y	2d	.
.	.	.	4ee
.	2B-y	2f	4dd
.	.	.	4cc
=45	=45	=45	=45
0r	2G	2g	4b-y
.	.	.	4a
.	1B-y	2f	1dd
.	.	1g	.
.	4A	.	4cc
.	4G	.	4b-y
=46	=46	=46	=46
0r	2B-y	1.f	2dd
.	2A	.	2cc
.	1B-y	.	4dd
.	.	.	4ee
.	.	2d	4ff
.	.	.	4dd
=47	=47	=47	=47
0r	2G	4g	2ee
.	.	4f	.
.	2B-y	4e	1dd
.	.	4d	.
.	1A	1e	.
.	.	.	2cc#i
=48	=48	=48	=48
2.G	0r	1d	0dd
4G	.	.	.
2G	.	1r	.
2F	.	.	.
=49	=49	=49	=49
2G	0r	2.d	0r
1B-y	.	.	.
.	.	4d	.
.	.	2d	.
2A	.	2c	.
=50	=50	=50	=50
2G	0r	2d	1r
2F	.	1f	.
1c	.	.	2.g
.	.	2e	.
.	.	.	4g
=51	=51	=51	=51
2B-y	1r	2d	2g
2A	.	1c	2f
1G	2r	.	2g
.	2G	2B-y	[2b-y
=52	=52	=52	=52
1F	2A	2.c	2b-]
.	2F	.	2a
.	.	4d	.
1r	2G	4e	2g
.	.	4c	.
.	[2B-y	[2d	2f
=53	=53	=53	=53
1F	2B-]	4d]	1cc
.	.	4c	.
.	2A	1f	.
1C	1G	.	2r
.	.	2e	2g
=54	=54	=54	=54
2F	2F	1f	2a
2A	1c	.	2f
1G	.	1r	2g
.	2B-y	.	[2b-y
=55	=55	=55	=55
1F	2.c	0r	2b-]
.	.	.	2a
.	4A	.	.
2G	1d	.	1g
[2B-y	.	.	.
=56	=56	=56	=56
2B-]	1c	1f	2f
2A	.	.	1cc
1G	2r	[1g	.
.	2d	.	2bnXi
=57	=57	=57	=57
1c	2e	2g]	1cc
.	2c	2e	.
2B-y	2d	1f	1r
2A	[2f	.	.
=58	=58	=58	=58
1G	2f]	1g	2r
.	2e	.	2g
2F	1d	2r	2a
2D	.	[2a	2f
=59	=59	=59	=59
1E-X	[0cl	4a]	2g
.	.	4g	.
.	.	2.g	1b-y
1F	.	.	.
.	.	4f	.
.	.	[2f	2a
=60	=60	=60	=60
0C	0c_	2f]	2.g
.	.	4e	.
.	.	4d	4f
.	.	1e	1g
=61	=61	=61	=61
0Fl	0c]	0fl	0al
=62||	=62||	=62||	=62||
*M2/1	*M2/1	*M2/1	*M2/1
*met(C|)	*met(C|)	*met(C|)	*met(C|)
!!section: Domine Deus
!!!OMD: Domine Deus
0F	0r	0r	0r
=63	=63	=63	=63
2D	0r	0r	0r
2F	.	.	.
1G	.	.	.
=64	=64	=64	=64
1F	0r	0r	0cc
2r	.	.	.
[2F	.	.	.
=65	=65	=65	=65
4F]	0r	0r	2a
4G	.	.	.
4A	.	.	2cc
4F	.	.	.
1B-y	.	.	1dd
=66	=66	=66	=66
2r	0r	0r	1cc
2F	.	.	.
2.c	.	.	2r
.	.	.	2g
4B-y	.	.	.
=67	=67	=67	=67
4A	0r	0r	1cc
4G	.	.	.
2.A	.	.	.
.	.	.	2r
4B-y	.	.	.
4c	.	.	2cc
4A	.	.	.
=68	=68	=68	=68
1.B-y	0r	0f	2.ff
.	.	.	4ee
.	.	.	2dd
2A	.	.	2cc
=69	=69	=69	=69
2G	0r	2d	2b-y
1F	.	2f	2a
.	.	1g	1b-y
2E	.	.	.
=70	=70	=70	=70
[0F	0r	1f	0a
.	.	2r	.
.	.	2c	.
=71	=71	=71	=71
0F]	0r	1f	2r
.	.	.	2a
.	.	2r	2.cc
.	.	2c	.
.	.	.	4b-y
=72	=72	=72	=72
2r	0r	2.f	4a
.	.	.	4g
2F	.	.	2cc
.	.	4e	.
2.B-y	.	2d	1f
.	.	2c	.
4A	.	.	.
=73	=73	=73	=73
2G	0r	2B-y	2g
2F	.	2A	1a
1G	.	1B-y	.
.	.	.	2g
=74	=74	=74	=74
2r	0r	1A	[0a
2.F	.	.	.
.	.	2r	.
4G	.	.	.
2A	.	2c	.
=75	=75	=75	=75
2D	0r	2d	1a]
2.F	.	2c	.
.	.	2.f	2r
4G	.	.	.
2A	.	.	2cc
.	.	4e	.
=76	=76	=76	=76
2B-y	0r	4d	2dd
.	.	4c	.
2A	.	1f	2cc
1F	.	.	1ff
.	.	4e	.
.	.	4d	.
=77	=77	=77	=77
0r	0r	2c	2ee
.	.	2g	2.dd
.	.	2f	.
.	.	.	4cc
.	.	2e	[2cc
=78	=78	=78	=78
2r	0r	1d	2cc]
2G	.	.	2bnXi
2A	.	2c	1cc
2F	.	[2f	.
=79	=79	=79	=79
1B-y	0r	4f]	1dd
.	.	4d	.
.	.	2g	.
2A	.	2f	1r
[2G	.	2e	.
=80	=80	=80	=80
4G]	0r	1d	1r
4F	.	.	.
1F	.	.	.
.	.	1c	2r
2E	.	.	2g
=81	=81	=81	=81
2F	0r	0r	2a
1B-y	.	.	2f
.	.	.	1b-y
2G	.	.	.
=82	=82	=82	=82
1c	0r	1r	2a
.	.	.	2.g
2B-y	.	2r	.
.	.	.	4f
2A	.	2c	[2f
=83	=83	=83	=83
1G	0r	2d	2f]
.	.	2B-y	2e
2F	.	1f	1a
2D	.	.	.
=84	=84	=84	=84
1G	0r	2e	2r
.	.	2.d	2g
2F	.	.	2a
.	.	4c	.
2A	.	[2c	2f
=85	=85	=85	=85
1G	0r	2c]	1b-y
.	.	2B-y	.
2F	.	[1c	2a
2C	.	.	[2g
=86	=86	=86	=86
2E	0r	1c]	4g]
.	.	.	4f
2F	.	.	1f
1G	.	1r	.
.	.	.	2e
=87	=87	=87	=87
1F	0r	2r	0f
.	.	2c	.
2r	.	2d	.
[2F	.	2c	.
=88	=88	=88	=88
2F]	0r	1f	2r
2D	.	.	2f
1G	.	2e	4g
.	.	.	4a
.	.	[2d	4b-y
.	.	.	4g
=89	=89	=89	=89
2F	0r	4d]	2a
.	.	4c	.
2E	.	1c	2g
1D	.	.	2a
.	.	2BnXi	4g
.	.	.	4f
=90	=90	=90	=90
0Cl	0r	0cl	0el
=91||	=91||	=91||	=91||
*M2/1	*M2/1	*M2/1	*M2/1
*met(C|)	*met(C|)	*met(C|)	*met(C|)
!!section: Qui tollis
!!!OMD: Qui tollis
0r	0c	0r	0r
=92	=92	=92	=92
0r	1c	0r	0cc
.	1c	.	.
=93	=93	=93	=93
0F	1A	0f	1cc
.	1c	.	1cc
=94	=94	=94	=94
1F	2d	1f	1a
.	2c	.	.
1F	1c	1f	1cc
=95	=95	=95	=95
1B-y	0r	1d	1dd
1F	.	1f	1cc
=96	=96	=96	=96
1c	2r	1g	0cc
.	2c	.	.
1F	2c	1f	.
.	2A	.	.
=97	=97	=97	=97
0F	2.c	0f	2r
.	.	.	2cc
.	4B-y	.	.
.	2c	.	2cc
.	2d	.	2a
=98	=98	=98	=98
0r	2e	0r	2.cc
.	2.f	.	.
.	.	.	4b-y
.	.	.	2cc
.	4e	.	.
.	4d	.	[2dd
.	4c	.	.
=99	=99	=99	=99
0r	2B-y	0f	2dd]
.	2c	.	1cc
.	1d	.	.
.	.	.	2bnXi
=100	=100	=100	=100
0F	0c	1f	1cc
.	.	1f	2r
.	.	.	2cc
=101	=101	=101	=101
1B-y	0r	1d	2dd
.	.	.	2.ff
1B-y	.	1f	.
.	.	.	4ee
.	.	.	4dd
.	.	.	4cc
=102	=102	=102	=102
2G	1r	1g	4b-y
.	.	.	4a
1B-y	.	.	1dd
.	1c	1f	.
2A	.	.	[2cc
=103	=103	=103	=103
1B-y	1d	0f	2cc]
.	.	.	2b-y
[1F	2c	.	1cc
.	2A	.	.
=104	=104	=104	=104
2F]	1.d	2r	0r
2D	.	2f	.
2F	.	2f	.
2G	2B-y	2d	.
=105	=105	=105	=105
2A	2c	2.f	1r
2.B-y	2d	.	.
.	.	4e	.
.	1B-y	2f	[1b-y
4A	.	.	.
4G	.	[2g	.
4F	.	.	.
=106	=106	=106	=106
2E-X	0r	4g]	1b-]
.	.	4f	.
2F	.	1f	.
1G	.	.	1b-y
.	.	2e	.
=107	=107	=107	=107
1F	0c	1f	[0a
[1F	.	1r	.
=108	=108	=108	=108
1F]	1c	0f	1a]
1F	[1A	.	2r
.	.	.	2a
=109	=109	=109	=109
1F	0A]	1f	2cc
.	.	.	2dd
2r	.	[1a	2ee
2D	.	.	[2ff
=110	=110	=110	=110
2F	1r	2a]	2ff]
2G	.	4g	4ee
.	.	4f	4dd
2A	2r	4e	2cc
.	.	4d	.
2D	2A	2f	2dd
=111	=111	=111	=111
2A	2c	2e	1a
2D	2d	2d	.
2r	2e	2c	2r
2D	[2f	[2d	2a
=112	=112	=112	=112
2F	2f]	2d]	2a
2G	4e	2B-y	2b-y
.	4d	.	.
2A	2c	1f	2cc
[2B-y	2d	.	[2f
=113	=113	=113	=113
2B-]	1B-y	2.d	2f]
4A	.	.	2g
4G	.	4e	.
2F	2c	2f	2a
[2G	2B-y	[2d	[2b-y
=114	=114	=114	=114
4G]	2.d	4d]	4b-]
4F	.	4e	4a
2D	.	2f	1a
.	4c	.	.
1E-X	1B-y	1e-X	.
.	.	.	2g
=115	=115	=115	=115
1.F	[0A	1c	[0a
.	.	2r	.
2D	.	[2d	.
=116	=116	=116	=116
1D	0A_	2d]	0a]
.	.	2d	.
2r	.	2f	.
[2D	.	2d	.
=117	=117	=117	=117
2D]	0A]	2.f	1r
2D	.	.	.
.	.	8eL	.
.	.	8dJ	.
2F	.	2c	2r
2D	.	[2d	[2a
=118	=118	=118	=118
2.F	0r	4d]	2a]
.	.	4c	.
.	.	2f	2a
4G	.	.	.
2A	.	2e	2cc
2F	.	[2f	2a
=119	=119	=119	=119
1F	0r	4f]	2.cc
.	.	4g	.
.	.	4a	.
.	.	4f	4dd
1r	.	2g	2ee
.	.	2a	[2ff
=120	=120	=120	=120
0r	0r	1d	4ff]
.	.	.	4ee
.	.	.	1dd
.	.	1e	.
.	.	.	2cc#i
=121	=121	=121	=121
0r	0r	1d	2dd
.	.	.	2ff
.	.	2r	2ff
.	.	2g	2ee
=122	=122	=122	=122
0r	0r	2g	2dd
.	.	2f	2.ff
.	.	2d	.
.	.	.	4ee
.	.	[2f	4dd
.	.	.	4cc
=123	=123	=123	=123
0r	0r	4f]	2dd
.	.	4e	.
.	.	4d	1cc
.	.	4c	.
.	.	1d	.
.	.	.	2bnXi
=124	=124	=124	=124
1.F	2r	1c	0cc
.	1c	.	.
.	.	1r	.
2F	2A	.	.
=125	=125	=125	=125
2D	1B-y	0r	1r
2E	.	.	.
2F	2A	.	[1cc
[2A	2F	.	.
=126	=126	=126	=126
4A]	1A	0r	2cc]
4G	.	.	.
1F	.	.	2a
.	1G	.	1b-y
2E	.	.	.
=127	=127	=127	=127
0F	4F	2r	2a
.	4G	.	.
.	4A	1f	2f
.	4B-y	.	.
.	2c	.	1a
.	2A	2f	.
=128	=128	=128	=128
0r	2B-y	2d	1g
.	2c	2e	.
.	[1d	2f	1f
.	.	[2a	.
=129	=129	=129	=129
0r	2d]	4a]	2r
.	.	4g	.
.	2A	1f	2cc
.	2B-y	.	2b-y
.	2c	2e	2g
=130	=130	=130	=130
2r	1F	1f	2.a
2F	.	.	.
.	.	.	4b-y
2A	1r	2r	2cc
2B-y	.	2f	[2dd
=131	=131	=131	=131
2c	0r	2e	2dd]
2A	.	2c	1cc
1G	.	2d	.
.	.	2e	2b-y
=132	=132	=132	=132
1F	2r	2f	2.a
.	2f	1c	.
.	.	.	4f
1r	2e	.	2g
.	2c	2A	[2a
=133	=133	=133	=133
2r	2d	2B-y	2a]
2C	2e	1c	2g
1F	1f	.	1a
.	.	2A	.
=134	=134	=134	=134
2BB-y	1d	1B-y	1r
2B-y	.	.	.
2A	2e	1c	[1cc
[2F	[2f	.	.
=135	=135	=135	=135
4F]	2f]	2r	1cc]
4G	.	.	.
2A	2c	2e	.
2D	2d	2f	1a
[2F	2c	[2a	.
=136	=136	=136	=136
2F]	1d	2a]	1b-y
4E-X	.	4g	.
4D	.	4f	.
1E-i	1G	1g	1b-y
=137	=137	=137	=137
0F	1c	0f	1.a
.	1r	.	.
.	.	.	2f
=138	=138	=138	=138
0BB-y	0B-y	0d	1f
.	.	.	[1b-y
=139	=139	=139	=139
1E-X	1G	1e-i	1b-]
1E-i	[1B-y	1e-i	1g
=140	=140	=140	=140
1.BB-y	2B-]	1.d	0b-y
.	2c	.	.
.	[1d	.	.
2C	.	2e	.
=141	=141	=141	=141
2D	1d]	0f	[0al
2E	.	.	.
2F	1d	.	.
2G	.	.	.
=142	=142	=142	=142
1.A	1.c	1.e	0a_
2D	2A	2d	.
=143	=143	=143	=143
0Dl	0Al	0dl	0a]
=144||	=144||	=144||	=144||
*M2/1	*M2/1	*M2/1	*M2/1
*met(C|)	*met(C|)	*met(C|)	*met(C|)
!!section: Cum sancto spiritu
!!!OMD: Cum sancto spiritu
1.G	0r	0r	0r
2F	.	.	.
=145	=145	=145	=145
2G	0r	1.d	0r
1B-y	.	.	.
2A	.	2c	.
=146	=146	=146	=146
2G	0r	2d	1r
2F	.	1f	.
1c	.	.	[1g
.	.	2e	.
=147	=147	=147	=147
2B-y	1r	2d	2g]
2A	.	2c	2f
[1G	[1d	1r	2g
.	.	.	[2b-y
=148	=148	=148	=148
2G]	2d]	1r	2b-]
2A	2c	.	2a
1B-y	2d	2r	2g
.	[2f	[2d	2f
=149	=149	=149	=149
2.A	2f]	2d]	2r
.	2e	2c	1a
4G	.	.	.
2.F	2d	2d	.
.	2c	[2f	2f
4E	.	.	.
=150	=150	=150	=150
1C	1g	2f]	1cc
.	.	2e	.
1r	2f	2d	2b-y
.	2e	2c	2a
=151	=151	=151	=151
2.G	1d	1g	4g
.	.	.	4a
.	.	.	4b-y
4A	.	.	4cc
2B-y	1r	2f	2dd
2c	.	2e	[2cc
=152	=152	=152	=152
1G	1r	1d	2cc]
.	.	.	2bnXi
2.C	2r	[1c	2.cc
.	2G	.	.
4D	.	.	4bXy
=153	=153	=153	=15
2E	2G	1c]	2g
2F	2F	.	2a
2C	2G	2r	1g
[2G	[2B-y	2d	.
=154	=154	=154	=154
4G]	2B-]	2d	0r
4D	.	.	.
2F	2A	2c	.
1BB-y	2G	2d	.
.	2F	[2f	.
=155	=155	=155	=155
1C	1c	2f]	1g
.	.	2e	.
1r	2B-y	2d	2g
.	2A	[2c	2f
=156	=156	=156	=156
2r	1G	2c]	2g
2G	.	2B-y	1b-y
2A	1F	2.c	.
2F	.	.	2a
.	.	4d	.
=157	=157	=157	=157
2G	0r	2e	1g
1B-y	.	2d	.
.	.	2r	1f
2A	.	2c	.
=158	=158	=158	=158
1G	2r	2d	1b-y
.	2G	2B-y	.
2.F	2A	[1c	2.a
.	2F	.	.
4E	.	.	4g
=159	=159	=159	=159
2C	2G	2c]	4e
.	.	.	4f
2BB-y	1B-y	1d	1g
1F	.	.	.
.	2A	2c	2f
=160	=160	=160	=160
1r	2G	2d	2g
.	2F	1f	2a
2r	1c	.	2.g
2C	.	2e	.
.	.	.	4f
=161	=161	=161	=161
2D	2A	1f	4d
.	.	.	4e
2BB-y	2d	.	4f
.	.	.	4g
2C	4c	2r	2a
.	4B-y	.	.
[2E-X	4A	2c	[2g
.	4G	.	.
=162	=162	=162	=162
2E-]	2A	2d	4g]
.	.	.	4f
2D	2F	2B-y	1f
1C	1G	2c	.
.	.	[2e-X	2e
=163	=163	=163	=163
1BB-y	2r	2e-]	[0fl
.	1B-y	2d	.
1F	.	1c	.
.	2A	.	.
=164	=164	=164	=164
0BB-y	2.d	1B-y	0f_
.	4c	.	.
.	1B-y	1d	.
=165	=165	=165	=165
0Fl	0Al	0cl	0f]
==	==	==	==
*-	*-	*-	*-
!!!system-decoration: s1,s2,s3,s4
!!!RDF**kern: i = editorial accidental
!!!RDF**kern: l = terminal long
!!!ENC: David Nivarlet
!!!END: 2026/03/01
!!!EED: Benjamin Ory
!!!EEV: 2026/03/09
!!!YEC: Copyright 2026 Benjamin Ory, All Rights Reserved
!!!ONB: Translated from MusicXML on 2026/03/09
